X:3261
T:Kilcar Mazurka, The
O:england
R:mazurka
D:The Brass Fiddle (Francie Byrne)
M:3/4
K:G
bg|d2 B2 GB|e2 g2 fd|c2 A2 GB|d2 g2 bg|
d2 c2 Ac|e2 g2 fe|d2 f2 a2|1 g3a:|2 g2 gd Bd||
|:g2 ge fg|a2 g2 fg|e2 ef ge|G2 B2 d2|
g2 ge fg|a2 gg fg|e2 f2 a2|1 g2 gd Bd:|2 g3a||


